docs/imgs/gacela-logo-blue.svg

<svg xmlns="http://www.w3.org/2000/svg" viewBox="0 0 708.7 481.9">
    <g fill="none" stroke="#173a66" stroke-width="3" stroke-linejoin="round">
        <path d="M12.6 462.5l16.5-20.4 2.9 27.1zm164.3 5.2l18.2-19.7 4 24.5zM111 439.2l10.9 22.7h-18.3zm233.4 23l10.2-17 7.7 17zm20.9-241.5l45.6-55.2-20.5-29.2-52.3 56.6z"/>
        <path d="M410.9 165.5l-20.5-29.2-52.3 56.6z"/>
        <path d="M410.9 165.5l64.7.7-85.2-29.9z"/>
        <path d="M302.9 177.3l75.8-68.6 5.7 15.2-.9 8.2 6.9 4.2-52.3 56.6z"/>
        <path d="M390.4 136.3l-6.9-4.2 5.9-53.2 10.6 36.7z"/>
        <path d="M414.5 79.5l-5.1 18.9-3.4-5.5zM272.3 16.2l104.5 45.3 28.6 44.8-15 30-6.9-4.2 1.1-10.2-21.1-53.2z"/>
        <path d="M293.1 9.4l93.2 51.2 26 41.1-6.9 4.6-28.6-44.8-34-14z"/>
        <path d="M412.3 101.7l20.7 23.1 49.2 26.5-6.6 14.9-85.2-29.9 15-30zM5.9 287.9l18.9-58.4 33.6-24.1L43.6 242zm49.5-25.2l28.1-45.5 64.4-2.3-27 77.3-70.5 54.7-16.5-1.5-6.8-14.9z"/>
        <path d="M27.1 330.5l6.8 14.9 16.5 1.5-21.3 95.2-16.5 20.4zm117.4-35.6l-23.6-2.7-49 38.1v13.6l26.9 4.2z"/>
        <path d="M71.9 343.9l26.9 4.2 12.2 91.1-7.4 22.7zm105 123.4l18.2-19.3 33.6-80.8h-21.1l-4.8-10.4z"/>
        <path d="M202.8 356.8l26.5-89.4 35.1-35.2 21.1 41-56.8 94h-21.1z"/>
        <path d="M120.9 292.2l97.9 10.5 10.5-35.3 35.1-35.2-116.5-17.3zm204.6 59.1l29.1 93.9-10.2 17-41.1-93.6z"/>
        <path d="M303.3 368.6l-29.1-71.5 35.8-30 15.5 84.2z"/>
        <path d="M365.3 220.7l-97.7 82 17.9-29.5-21.1-41 73.7-39.3z"/>
        <path d="M338.1 192.9l-73.7 39.3-116.5-17.3 155-37.6z"/>
        <path d="M58.4 205.4l75.1-25.7 169.4-2.4-155 37.6-64.4 2.3-25.1-11.8z"/>
        <path d="M58.4 205.4l25.1 11.8-28.1 45.5L43.6 242z"/>
    </g>
    <path d="M432.2 462.4c-4.9 0-9.3-1-13.4-3.1s-7.6-4.8-10.6-8.3a40.37 40.37 0 0 1-7-11.6c-1.6-4.3-2.5-8.6-2.5-13 0-4.7.8-9.2 2.4-13.5s3.8-8.2 6.8-11.5c2.9-3.4 6.3-6.1 10.3-8 4-2 8.3-3 13-3 7.2 0 13 1.5 17.2 4.3 4.3 2.9 7.6 6.6 9.9 11.2l-3 1.5c-2.5-4.9-5.9-8.4-10-10.5s-8.9-3.2-14.2-3.2c-4.4 0-8.4.9-12 2.8-3.6 1.8-6.6 4.3-9.2 7.5-2.5 3.1-4.5 6.6-5.8 10.5s-2 7.9-2 12a34.54 34.54 0 0 0 2.3 12.4c1.5 3.9 3.7 7.4 6.5 10.5s6 5.5 9.6 7.2 7.5 2.6 11.8 2.6c4.7 0 9.2-1.2 13.5-3.5s8.4-6 12.3-11v4.2c-7.2 9-15.9 13.5-25.9 13.5zm24.8-31.6h-16.4v-3h19.6v34.1H457v-31.1zm12.8 16.2c0-3.1.9-5.7 2.8-7.9s4.4-4 7.6-5.3 6.9-1.9 11.2-1.9c2.8 0 5.7.2 8.7.8s5.7 1.2 8.1 2v-5.5c0-5.1-1.5-9.2-4.5-12.2-3-3.1-6.9-4.7-11.9-4.7-2.5 0-5.2.5-8.1 1.6a38.68 38.68 0 0 0-8.6 4.7l-1.7-2.5c3.4-2.3 6.6-4.1 9.7-5.2s6-1.7 8.9-1.7c6 0 10.8 1.8 14.3 5.4s5.3 8.5 5.3 14.7v27.3c0 .7.1 1.3.5 1.6.3.4.8.5 1.3.5v3h-1.2c-.3 0-.5 0-.8-.1-.9-.2-1.7-.7-2.2-1.5a6.22 6.22 0 0 1-.9-2.6V453c-2.4 3.1-5.5 5.5-9.3 7.2s-7.9 2.5-12.2 2.5c-3.2 0-6.1-.7-8.7-2.1s-4.6-3.3-6.1-5.7c-1.4-2.3-2.2-5-2.2-7.9zm36.6 4.5c.6-.8 1-1.6 1.3-2.3.3-.8.5-1.4.5-2v-9.5c-2.6-1-5.3-1.7-8-2.2-2.8-.5-5.6-.7-8.5-.7-5.5 0-10 1.1-13.4 3.3s-5.1 5.2-5.1 8.8c0 2.4.6 4.6 1.8 6.6s2.9 3.6 5.1 4.8 4.6 1.8 7.2 1.8c4.1 0 7.9-.8 11.3-2.3 3.5-1.7 6.1-3.8 7.8-6.3zm42.5 11.4c-3.5 0-6.8-.7-9.9-2.1s-5.8-3.4-8.1-5.9-4.2-5.4-5.5-8.6a28.42 28.42 0 0 1-2-10.5c0-5 1.1-9.5 3.3-13.5s5.2-7.2 9-9.5c3.8-2.4 8.1-3.5 13-3.5 4.5 0 8.6 1 12.1 3.2 3.5 2.1 6.2 5 7.9 8.6l-3.3 1.2c-1.6-3.1-3.9-5.5-6.9-7.2s-6.4-2.6-10.1-2.6c-4 0-7.6 1-10.9 3.1s-5.9 4.9-7.8 8.4-2.9 7.5-2.9 11.9c0 4.3 1 8.3 3 12s4.6 6.6 7.9 8.7c3.3 2.2 6.9 3.2 10.9 3.2 2.6 0 5.1-.5 7.6-1.5s4.6-2.2 6.4-3.8 3-3.2 3.5-5l3.4 1c-.8 2.4-2.2 4.5-4.3 6.5-2.1 1.9-4.5 3.4-7.3 4.4-2.9.9-5.8 1.5-9 1.5zm53.5 0c-3.5 0-6.8-.7-9.9-2.2-3.1-1.4-5.8-3.4-8.1-5.9s-4.1-5.4-5.4-8.7a28.42 28.42 0 0 1-2-10.5c0-4.8 1.1-9.3 3.3-13.2 2.2-4 5.2-7.2 8.9-9.6 3.8-2.4 8-3.6 12.7-3.6 4.8 0 9.1 1.2 12.8 3.6 3.8 2.4 6.8 5.6 9.1 9.7 2.3 4 3.4 8.5 3.4 13.4v.8c0 .3 0 .5-.1.8h-46.6c.3 4.2 1.5 8 3.6 11.4 2 3.4 4.7 6.1 7.9 8.1s6.8 3 10.5 3a20.36 20.36 0 0 0 10.7-3c3.3-2 5.7-4.5 7.1-7.5l3.1.8c-1 2.4-2.6 4.6-4.7 6.5s-4.6 3.4-7.5 4.5c-2.7 1-5.6 1.6-8.8 1.6zm-21.9-28.3h43.4c-.3-4.4-1.4-8.2-3.4-11.6s-4.5-6-7.8-7.9-6.8-2.9-10.7-2.9-7.4 1-10.5 2.9c-3.2 1.9-5.7 4.6-7.7 8-1.9 3.3-3 7.1-3.3 11.5zm58.7-45.7h3.5v64.6c0 2.1.5 3.7 1.7 4.8 1.1 1 2.5 1.6 4.3 1.6.9 0 1.9-.1 3-.3l3-.7.8 2.8c-1 .3-2.2.6-3.8.9-1.5.3-2.8.4-3.8.4-2.5 0-4.6-.8-6.2-2.4s-2.4-3.7-2.4-6.4v-65.3zm19.9 58.1c0-3.1.9-5.7 2.8-7.9s4.4-4 7.6-5.3 6.9-1.9 11.2-1.9c2.8 0 5.7.2 8.7.8s5.7 1.2 8.1 2v-5.5c0-5.1-1.5-9.2-4.4-12.2-3-3.1-7-4.7-12-4.7-2.5 0-5.2.5-8 1.6s-5.7 2.6-8.7 4.7l-1.7-2.5c3.4-2.3 6.6-4.1 9.7-5.2s6-1.7 8.9-1.7c6 0 10.8 1.8 14.3 5.4s5.3 8.5 5.3 14.7v27.3c0 .7.2 1.3.4 1.6.3.4.8.5 1.3.5v3h-1.1c-.3 0-.6 0-.8-.1-.9-.2-1.7-.7-2.2-1.5a6.22 6.22 0 0 1-.9-2.6V453c-2.4 3.1-5.5 5.5-9.3 7.2s-7.9 2.5-12.2 2.5c-3.2 0-6.1-.7-8.7-2.1s-4.7-3.3-6.2-5.7c-1.3-2.3-2.1-5-2.1-7.9zm36.6 4.5c.6-.8 1.1-1.6 1.4-2.3.3-.8.4-1.4.4-2v-9.5c-2.6-1-5.3-1.7-8.1-2.2s-5.6-.7-8.5-.7c-5.5 0-10 1.1-13.4 3.3s-5.1 5.2-5.1 8.8c0 2.4.6 4.6 1.9 6.6 1.2 2 2.9 3.6 5.1 4.8s4.6 1.8 7.2 1.8c4.1 0 7.9-.8 11.3-2.3 3.5-1.7 6.1-3.8 7.8-6.3z" fill="#173a66"/>
</svg>

<svg xmlns="http://www.w3.org/2000/svg" viewBox="0 0 708.7 481.9">
    <g fill="none" stroke="#123456" stroke-width="3" stroke-linejoin="round">
        <path d="M5.9,287.9 24.8,229.5 58.4,205.4 43.6,242z"/>
        <path d="M12.6,462.5 29.1,442.1 32,469.2z"/>
        <path d="M27.1,330.5 33.9,345.4 50.4,346.9 29.1,442.1 12.6,462.5z"/>
        <path d="M55.4,262.7 83.5,217.2 147.9,214.9 120.9,292.2 50.4,346.9 33.9,345.4 27.1,330.5z"/>
        <path d="M58.4,205.4 83.5,217.2 55.4,262.7 43.6,242z"/>
        <path d="M71.9,343.9 98.8,348.1 111,439.2 103.6,461.9z"/>
        <path d="M111,439.2 121.9,461.9 103.6,461.9z"/>
        <path d="M120.9,292.2 218.8,302.7 229.3,267.4 264.4,232.2 147.9,214.9z"/>
        <path d="M144.5,294.9 120.9,292.2 71.9,330.3 71.9,343.9 98.8,348.1z"/>
        <path d="M176.9,467.3 195.1,448 228.7,367.2 207.6,367.2 202.8,356.8z"/>
        <path d="M176.9,467.7 195.1,448 199.1,472.5z"/>
        <path d="M202.8,356.8 229.3,267.4 264.4,232.2 285.5,273.2 228.7,367.2 207.6,367.2z"/>
        <path d="M272.3,16.2 376.8,61.5 405.4,106.3 390.4,136.3 383.5,132.1 384.6,121.9 363.5,68.7z"/>
        <path d="M293.1,9.4 386.3,60.6 412.3,101.7 405.4,106.3 376.8,61.5 340.4,45.7z"/>
        <path d="M302.9,177.3 147.9,214.9 83.5,217.2 58.4,205.4 133.5,179.7z"/>
        <path d="M302.9,177.3 379.2,108.2 384.6,121.9 383.5,132.1 390.4,136.3 338.1,192.9z"/>
        <path d="M303.3,368.6 274.2,297.1 310,267.1 325.5,351.3z"/>
        <path d="M325.5,351.3 354.6,445.2 344.4,462.2 303.3,368.6z"/>
        <path d="M338.1,192.9 264.4,232.2 147.9,214.9 302.9,177.3z"/>
        <path d="M344.4,462.2 354.6,445.2 362.3,462.2z"/>
        <path d="M365.3,220.7 267.6,302.7 285.5,273.2 264.4,232.2 338.1,192.9z"/>
        <path d="M365.3,220.7 410.9,165.5 390.4,136.3 338.1,192.9z"/>
        <path d="M390.4,136.3 383.5,132.1 389.4,78.9 400.3,116.6z"/>
        <path d="M410.9,165.5 475.6,166.2 390.4,136.3z"/>
        <path d="M412.3,101.7 433,124.8 482.2,151.3 475.6,166.2 390.4,136.3 405.4,106.3z"/>
        <path d="M414.5,77 409.2,96.7 405.6,91z"/>
    </g>
    <path d="M432.2 462.4c-4.9 0-9.3-1-13.4-3.1s-7.6-4.8-10.6-8.3a40.37 40.37 0 0 1-7-11.6c-1.6-4.3-2.5-8.6-2.5-13 0-4.7.8-9.2 2.4-13.5s3.8-8.2 6.8-11.5c2.9-3.4 6.3-6.1 10.3-8 4-2 8.3-3 13-3 7.2 0 13 1.5 17.2 4.3 4.3 2.9 7.6 6.6 9.9 11.2l-3 1.5c-2.5-4.9-5.9-8.4-10-10.5s-8.9-3.2-14.2-3.2c-4.4 0-8.4.9-12 2.8-3.6 1.8-6.6 4.3-9.2 7.5-2.5 3.1-4.5 6.6-5.8 10.5s-2 7.9-2 12a34.54 34.54 0 0 0 2.3 12.4c1.5 3.9 3.7 7.4 6.5 10.5s6 5.5 9.6 7.2 7.5 2.6 11.8 2.6c4.7 0 9.2-1.2 13.5-3.5s8.4-6 12.3-11v4.2c-7.2 9-15.9 13.5-25.9 13.5zm24.8-31.6h-16.4v-3h19.6v34.1H457v-31.1zm12.8 16.2c0-3.1.9-5.7 2.8-7.9s4.4-4 7.6-5.3 6.9-1.9 11.2-1.9c2.8 0 5.7.2 8.7.8s5.7 1.2 8.1 2v-5.5c0-5.1-1.5-9.2-4.5-12.2-3-3.1-6.9-4.7-11.9-4.7-2.5 0-5.2.5-8.1 1.6a38.68 38.68 0 0 0-8.6 4.7l-1.7-2.5c3.4-2.3 6.6-4.1 9.7-5.2s6-1.7 8.9-1.7c6 0 10.8 1.8 14.3 5.4s5.3 8.5 5.3 14.7v27.3c0 .7.1 1.3.5 1.6.3.4.8.5 1.3.5v3h-1.2c-.3 0-.5 0-.8-.1-.9-.2-1.7-.7-2.2-1.5a6.22 6.22 0 0 1-.9-2.6V453c-2.4 3.1-5.5 5.5-9.3 7.2s-7.9 2.5-12.2 2.5c-3.2 0-6.1-.7-8.7-2.1s-4.6-3.3-6.1-5.7c-1.4-2.3-2.2-5-2.2-7.9zm36.6 4.5c.6-.8 1-1.6 1.3-2.3.3-.8.5-1.4.5-2v-9.5c-2.6-1-5.3-1.7-8-2.2-2.8-.5-5.6-.7-8.5-.7-5.5 0-10 1.1-13.4 3.3s-5.1 5.2-5.1 8.8c0 2.4.6 4.6 1.8 6.6s2.9 3.6 5.1 4.8 4.6 1.8 7.2 1.8c4.1 0 7.9-.8 11.3-2.3 3.5-1.7 6.1-3.8 7.8-6.3zm42.5 11.4c-3.5 0-6.8-.7-9.9-2.1s-5.8-3.4-8.1-5.9-4.2-5.4-5.5-8.6a28.42 28.42 0 0 1-2-10.5c0-5 1.1-9.5 3.3-13.5s5.2-7.2 9-9.5c3.8-2.4 8.1-3.5 13-3.5 4.5 0 8.6 1 12.1 3.2 3.5 2.1 6.2 5 7.9 8.6l-3.3 1.2c-1.6-3.1-3.9-5.5-6.9-7.2s-6.4-2.6-10.1-2.6c-4 0-7.6 1-10.9 3.1s-5.9 4.9-7.8 8.4-2.9 7.5-2.9 11.9c0 4.3 1 8.3 3 12s4.6 6.6 7.9 8.7c3.3 2.2 6.9 3.2 10.9 3.2 2.6 0 5.1-.5 7.6-1.5s4.6-2.2 6.4-3.8 3-3.2 3.5-5l3.4 1c-.8 2.4-2.2 4.5-4.3 6.5-2.1 1.9-4.5 3.4-7.3 4.4-2.9.9-5.8 1.5-9 1.5zm53.5 0c-3.5 0-6.8-.7-9.9-2.2-3.1-1.4-5.8-3.4-8.1-5.9s-4.1-5.4-5.4-8.7a28.42 28.42 0 0 1-2-10.5c0-4.8 1.1-9.3 3.3-13.2 2.2-4 5.2-7.2 8.9-9.6 3.8-2.4 8-3.6 12.7-3.6 4.8 0 9.1 1.2 12.8 3.6 3.8 2.4 6.8 5.6 9.1 9.7 2.3 4 3.4 8.5 3.4 13.4v.8c0 .3 0 .5-.1.8h-46.6c.3 4.2 1.5 8 3.6 11.4 2 3.4 4.7 6.1 7.9 8.1s6.8 3 10.5 3a20.36 20.36 0 0 0 10.7-3c3.3-2 5.7-4.5 7.1-7.5l3.1.8c-1 2.4-2.6 4.6-4.7 6.5s-4.6 3.4-7.5 4.5c-2.7 1-5.6 1.6-8.8 1.6zm-21.9-28.3h43.4c-.3-4.4-1.4-8.2-3.4-11.6s-4.5-6-7.8-7.9-6.8-2.9-10.7-2.9-7.4 1-10.5 2.9c-3.2 1.9-5.7 4.6-7.7 8-1.9 3.3-3 7.1-3.3 11.5zm58.7-45.7h3.5v64.6c0 2.1.5 3.7 1.7 4.8 1.1 1 2.5 1.6 4.3 1.6.9 0 1.9-.1 3-.3l3-.7.8 2.8c-1 .3-2.2.6-3.8.9-1.5.3-2.8.4-3.8.4-2.5 0-4.6-.8-6.2-2.4s-2.4-3.7-2.4-6.4v-65.3zm19.9 58.1c0-3.1.9-5.7 2.8-7.9s4.4-4 7.6-5.3 6.9-1.9 11.2-1.9c2.8 0 5.7.2 8.7.8s5.7 1.2 8.1 2v-5.5c0-5.1-1.5-9.2-4.4-12.2-3-3.1-7-4.7-12-4.7-2.5 0-5.2.5-8 1.6s-5.7 2.6-8.7 4.7l-1.7-2.5c3.4-2.3 6.6-4.1 9.7-5.2s6-1.7 8.9-1.7c6 0 10.8 1.8 14.3 5.4s5.3 8.5 5.3 14.7v27.3c0 .7.2 1.3.4 1.6.3.4.8.5 1.3.5v3h-1.1c-.3 0-.6 0-.8-.1-.9-.2-1.7-.7-2.2-1.5a6.22 6.22 0 0 1-.9-2.6V453c-2.4 3.1-5.5 5.5-9.3 7.2s-7.9 2.5-12.2 2.5c-3.2 0-6.1-.7-8.7-2.1s-4.7-3.3-6.2-5.7c-1.3-2.3-2.1-5-2.1-7.9zm36.6 4.5c.6-.8 1.1-1.6 1.4-2.3.3-.8.4-1.4.4-2v-9.5c-2.6-1-5.3-1.7-8.1-2.2s-5.6-.7-8.5-.7c-5.5 0-10 1.1-13.4 3.3s-5.1 5.2-5.1 8.8c0 2.4.6 4.6 1.9 6.6 1.2 2 2.9 3.6 5.1 4.8s4.6 1.8 7.2 1.8c4.1 0 7.9-.8 11.3-2.3 3.5-1.7 6.1-3.8 7.8-6.3z" fill="#123456"/>
</svg>
